src/images/svg/symbols/boom-indices-500-new.svg

<svg width="33" height="32" viewBox="0 0 33 32" fill="none" xmlns="http://www.w3.org/2000/svg">
<path d="M0.666016 2C0.666016 0.89543 1.56145 0 2.66602 0H17.666C18.7706 0 19.666 0.895431 19.666 2V8C19.666 9.10457 18.7706 10 17.666 10H2.66602C1.56145 10 0.666016 9.10457 0.666016 8V2Z" fill="#0E0E0E"/>
<path d="M7.14589 3.46431H4.60989L4.48989 5.23231H4.55389C4.60722 5.09898 4.66589 4.97898 4.72989 4.87231C4.79922 4.76031 4.87922 4.66698 4.96989 4.59231C5.06056 4.51231 5.16989 4.45098 5.29789 4.40831C5.42589 4.36565 5.57789 4.34431 5.75389 4.34431C5.99389 4.34431 6.21789 4.38431 6.42589 4.46431C6.63389 4.54431 6.81522 4.66165 6.96989 4.81631C7.12456 4.96565 7.24722 5.15231 7.33789 5.37631C7.42856 5.59498 7.47389 5.84298 7.47389 6.12031C7.47389 6.40298 7.42589 6.66698 7.32989 6.91231C7.23922 7.15231 7.10056 7.36031 6.91389 7.53631C6.73256 7.71231 6.50856 7.85098 6.24189 7.95231C5.97522 8.04831 5.67122 8.09631 5.32989 8.09631C5.05789 8.09631 4.81789 8.06698 4.60989 8.00831C4.40189 7.94965 4.21789 7.87231 4.05789 7.77631C3.89789 7.67498 3.75922 7.56031 3.64189 7.43231C3.52456 7.30431 3.42322 7.16831 3.33789 7.02431L4.20989 6.33631C4.33256 6.55498 4.47922 6.74165 4.64989 6.89631C4.82056 7.04565 5.04989 7.12031 5.33789 7.12031C5.62589 7.12031 5.84189 7.03765 5.98589 6.87231C6.13522 6.70698 6.20989 6.48831 6.20989 6.21631V6.15231C6.20989 5.89631 6.13522 5.69365 5.98589 5.54431C5.83656 5.39498 5.63122 5.32031 5.36989 5.32031C5.15122 5.32031 4.96989 5.36565 4.82589 5.45631C4.68722 5.54165 4.58056 5.62698 4.50589 5.71231L3.52189 5.57631L3.72989 2.41631H7.14589V3.46431Z" fill="white"/>
<path d="M10.1668 8.09631C9.4361 8.09631 8.89477 7.84298 8.54277 7.33631C8.19077 6.82965 8.01477 6.12031 8.01477 5.20831C8.01477 4.29631 8.19077 3.58698 8.54277 3.08031C8.89477 2.57365 9.4361 2.32031 10.1668 2.32031C10.8974 2.32031 11.4388 2.57365 11.7908 3.08031C12.1428 3.58698 12.3188 4.29631 12.3188 5.20831C12.3188 6.12031 12.1428 6.82965 11.7908 7.33631C11.4388 7.84298 10.8974 8.09631 10.1668 8.09631ZM10.1668 7.08031C10.4868 7.08031 10.7081 6.96298 10.8308 6.72831C10.9534 6.49365 11.0148 6.16298 11.0148 5.73631V4.68031C11.0148 4.25365 10.9534 3.92298 10.8308 3.68831C10.7081 3.45365 10.4868 3.33631 10.1668 3.33631C9.84677 3.33631 9.62543 3.45365 9.50277 3.68831C9.3801 3.92298 9.31877 4.25365 9.31877 4.68031V5.73631C9.31877 6.16298 9.3801 6.49365 9.50277 6.72831C9.62543 6.96298 9.84677 7.08031 10.1668 7.08031Z" fill="white"/>
<path d="M14.9636 8.09631C14.233 8.09631 13.6916 7.84298 13.3396 7.33631C12.9876 6.82965 12.8116 6.12031 12.8116 5.20831C12.8116 4.29631 12.9876 3.58698 13.3396 3.08031C13.6916 2.57365 14.233 2.32031 14.9636 2.32031C15.6943 2.32031 16.2356 2.57365 16.5876 3.08031C16.9396 3.58698 17.1156 4.29631 17.1156 5.20831C17.1156 6.12031 16.9396 6.82965 16.5876 7.33631C16.2356 7.84298 15.6943 8.09631 14.9636 8.09631ZM14.9636 7.08031C15.2836 7.08031 15.505 6.96298 15.6276 6.72831C15.7503 6.49365 15.8116 6.16298 15.8116 5.73631V4.68031C15.8116 4.25365 15.7503 3.92298 15.6276 3.68831C15.505 3.45365 15.2836 3.33631 14.9636 3.33631C14.6436 3.33631 14.4223 3.45365 14.2996 3.68831C14.177 3.92298 14.1156 4.25365 14.1156 4.68031V5.73631C14.1156 6.16298 14.177 6.49365 14.2996 6.72831C14.4223 6.96298 14.6436 7.08031 14.9636 7.08031Z" fill="white"/>
<path d="M0.666016 17.4144L7.66597 24.4143L10.666 21.4143L17.666 28.4143L20.666 25.4143L26.666 31.4143V28.5859L20.666 22.5859L17.666 25.5859L10.666 18.5859L7.66597 21.5859L0.666016 14.5859V17.4144Z" fill="#FF444F"/>
<path d="M27.6661 10L32.3732 14.7071L30.959 16.1213L28.6661 13.8284L28.6661 32H27.2519L26.6661 31.4142L26.6661 13.8284L24.3732 16.1213L22.959 14.7071L27.6661 10Z" fill="#85ACB0"/>
</svg>

<svg width="33" height="32" fill="none" xmlns="http://www.w3.org/2000/svg"><path d="M.666 2a2 2 0 0 1 2-2h15a2 2 0 0 1 2 2v6a2 2 0 0 1-2 2h-15a2 2 0 0 1-2-2V2Z" fill="#0E0E0E"/><path d="M7.146 3.464H4.61l-.12 1.768h.064c.053-.133.112-.253.176-.36.07-.112.15-.205.24-.28.09-.08.2-.141.328-.184.128-.042.28-.064.456-.064.24 0 .464.04.672.12a1.6 1.6 0 0 1 .912.912c.09.219.136.467.136.744 0 .283-.048.547-.144.792-.09.24-.23.448-.416.624a1.94 1.94 0 0 1-.672.416c-.267.096-.57.144-.912.144a2.66 2.66 0 0 1-.72-.088 2.26 2.26 0 0 1-.552-.232 2.042 2.042 0 0 1-.416-.344 2.457 2.457 0 0 1-.304-.408l.872-.688a2.2 2.2 0 0 0 .44.56c.17.15.4.224.688.224.288 0 .504-.082.648-.248.15-.165.224-.384.224-.656v-.064c0-.256-.075-.458-.224-.608-.15-.149-.355-.224-.616-.224-.219 0-.4.046-.544.136-.139.086-.245.171-.32.256l-.984-.136.208-3.16h3.416v1.048ZM10.167 8.096c-.73 0-1.272-.253-1.624-.76-.352-.506-.528-1.216-.528-2.128 0-.912.176-1.621.528-2.128.352-.506.893-.76 1.624-.76.73 0 1.272.254 1.624.76.352.507.528 1.216.528 2.128 0 .912-.176 1.622-.528 2.128-.352.507-.894.76-1.624.76Zm0-1.016c.32 0 .541-.117.664-.352.122-.234.184-.565.184-.992V4.68c0-.426-.062-.757-.184-.992-.123-.234-.344-.352-.664-.352-.32 0-.542.118-.664.352-.123.235-.184.566-.184.992v1.056c0 .427.061.758.184.992.122.235.344.352.664.352ZM14.964 8.096c-.731 0-1.272-.253-1.624-.76-.352-.506-.528-1.216-.528-2.128 0-.912.176-1.621.528-2.128.352-.506.893-.76 1.624-.76.73 0 1.272.254 1.624.76.352.507.528 1.216.528 2.128 0 .912-.176 1.622-.528 2.128-.352.507-.894.76-1.624.76Zm0-1.016c.32 0 .541-.117.664-.352.122-.234.184-.565.184-.992V4.68c0-.426-.062-.757-.184-.992-.123-.234-.344-.352-.664-.352-.32 0-.542.118-.664.352-.123.235-.184.566-.184.992v1.056c0 .427.061.758.184.992.122.235.344.352.664.352Z" fill="#fff"/><path d="m.666 17.414 7 7 3-3 7 7 3-3 6 6v-2.828l-6-6-3 3-7-7-3 3-7-7v2.828Z" fill="#FF444F"/><path d="m27.666 10 4.707 4.707-1.414 1.414-2.293-2.293V32h-1.414l-.586-.586V13.828l-2.293 2.293-1.414-1.414L27.666 10Z" fill="#85ACB0"/></svg>
